X: 24
T:Miss Forbes' Farewell to Banff
% Nottingham Music Database
P:AAB
S:Athole p147, via EF
M:4/4
L:1/4
K:G
P:A
[G/2B/2][A/2c/2]|"G"[Bd][B/2d/2][d/2g/2] "D7"[c/2d/2][B/2d/2][A/2c/2][G/2B/2]|"G"[Bd][dg] "C"[e/2g/2][f/2a/2][g/2c'/2][e/2g/2]|\
"G"[dg][d/2g/2][e/2g/2] [d/2g/2][B/2d/2][A/2c/2][G/2B/2]|"Am"[Bd][Ac] "D7"[Ac][G/2B/2][A/2c/2]|
"G"[Bd][B/2d/2][d/2g/2] "D7"[c/2d/2][B/2d/2][A/2c/2][G/2B/2]|"G"[Bd][dg] "C"[e/2g/2][f/2a/2][g/2c'/2][e/2g/2]|\
"G/d"[dg][d/2g/2][e/2g/2] "D7"[d/2f/2][B/2d/2][G/2B/2][A/2c/2]|"G"[Bd][GB]G:|
P:B
(3[d/2g/2][e/2g/2][f/2a/2]|"G"[g/2b/2][f/2a/2][g/2b/2][a/2c'/2] [g/2b/2][f/2a/2][e/2g/2][d/2g/2]|"C"[e/2g/2][d/2f/2][e/2g/2][f/2a/2] [gc'][f/2a/2][e/2g/2]|\
"G"[dg][d/2g/2][e/2g/2] [d/2g/2][B/2d/2][A/2c/2][G/2B/2]|
"Am"[Bd][Ac] "D7"[Ac](3[d/2f/2][e/2g/2][f/2a/2]|"G"[g/2b/2][f/2a/2][g/2b/2][a/2c'/2] [g/2b/2][f/2a/2][e/2g/2][d/2g/2]|"C"[e/2g/2][d/2f/2][e/2g/2][f/2a/2] [gc'][f/2a/2][e/2g/2]|\
"G/d"[dg][d/2g/2][e/2g/2] "D7"[d/2f/2][B/2d/2][G/2B/2][A/2c/2]|
"G"[Bd][GB] "D7"[GB](3[d/2f/2][e/2g/2][f/2a/2]|"G"[g/2b/2][f/2a/2][g/2b/2][a/2c'/2] [g/2b/2][f/2a/2][e/2g/2][d/2g/2]|"C"[e/2g/2][d/2f/2][e/2g/2][f/2a/2] [gc'][f/2a/2][e/2g/2]|\
"G"[dg][d/2g/2][e/2g/2] [d/2g/2][B/2d/2][A/2c/2][G/2B/2]|
"Am"[Bd][Ac] "D7"[Ac][G/2B/2][A/2c/2]|"G"[Bd][B/2d/2][d/2g/2] "D7"[c/2d/2][B/2d/2][A/2c/2][G/2B/2]|"G"[Bd][dg] "C"[e/2g/2][f/2a/2][g/2c'/2][e/2g/2]|\
"G/d"[dg][d/2g/2][e/2g/2] "D7"[d/2f/2][B/2d/2][G/2B/2][A/2c/2]|"G"[Bd][GB] [GB]||


